X: 042
M: 6/8
L: 1/8
K: G
d3 ece | d3 c2c | B2B AGA | B2G G2B |\
d3 ece | d3 c2c | B2B ABA | G3 :|
|: B3 |\

